X: 63
T:Orton Hornpipe. WI.063
T:Manchester Hpaka. WI.063
T:Rickett's Hpaka. WI.063
M:C
L:1/8
Q:180
C:"by Wm Irwin"
S:Wm Irwin, Folio MS, c1850. AGG's Transcription
R:Hornpipe
O:England
A:Lake District
N:Remarkably similar to Rickett's/Manchester Hp
Z:vmp.Chris Partington.2005
K:C
e2|cGEG c2c2|ecge c2de|f2ag fedc|BcdB G2AB|!
cGEG c2c2|ecge c2de|fagf edcB|d2c2 c2:|!
|:ef|{a}g^fge c2de|f2af d2de|f2ag fedc|((3Bcd) ((3cBA) G2ef|!
{a}g^fge c2de|f2af d2ef|gece fdBd|c2e2c2:|]
